X: 1
T: the Rosebud of Allenvale
C: J. Scott Skinner
R: waltz
Z: Alf Warnock
M: 3/4
L: 1/8
K: A
% - - - - - - - - - - - - - - - - - - - - - - - - -
e>d |\
"A"c3 d c2 | "E7"B3 A B2 | "A"A6 | A2 B2 c2 |\
"D"d3 e f2 | "A"e2 A2 c2 | "E"B6 | "E7"B4 ed |
"A"c3 d e2 | "A7"A2 B2 c2 | "D"d4 e2 | f4 a>f |\
"A"e2 A2 d2 | "E7"c4 B2 | "A"A6 | A4 :|
|: c>d |\
"A7"e3 f =g2 | f4 e2 | "D"d6 | d4 e2 |\
"B7"f3 g a2 | g4 f2 | "E7"e6 | e2 f2 g2 |
"A"a2 e2 c2 | "A7"A4 =G2 | "D"F2 A2 d2 | f4 a>f |\
"A"e2 A2 d2 | "E7"c4 B2 | "A"A6 | A4 :|
